images/kanpeki-green.svg

<svg height="250" viewBox="0 0 250 250" width="250" xmlns="http://www.w3.org/2000/svg"><g fill="#1cc674"><path d="m65.351562 202.742188c3.097657-15.042969 6.796876-29.917969 10.898438-44.683594 2-7.40625 4.199219-14.703125 6.351562-22.058594 2.148438-7.351562 4.546876-14.589844 6.949219-21.832031 2.398438-7.238281 4.898438-14.421875 7.5-21.550781 2.597657-7.125 5.25-14.25 8.050781-21.320313 5.546876-14.085937 21.046876-57.636719 27.597657-71.2109375-3.398438 4.3554685-6.800781 8.7109375-10.050781 13.1757815-.5.679687 4.5-9.445313 4-8.765625-40.898438 55.65625-84.847657 159.957031-105 228.734375 13.550781-1.980469 27.050781-3.902344 40.550781-6.109375 6.75-1.132813 13.5-2.148438 20.199219-3.394532 6.703124-1.242187 13.453124-2.316406 20.152343-3.617187 6.699219-1.304687 13.449219-2.546875 20.148438-3.90625 6.699219-1.355469 13.402343-2.769531 20.101562-4.128906 13.398438-2.828125 26.75-8.257813 40.199219-11.140625"/><path d="m128.300781 82.609375c9.949219 10.574219 19.5 21.660156 28.75 32.972656 4.648438 5.65625 9.148438 11.425781 13.699219 17.25 4.550781 5.828125 8.898438 11.765625 13.25 17.707031 4.351562 5.9375 8.601562 12.046876 12.75 18.15625 4.148438 6.105469 8.300781 12.273438 12.25 18.550782 8 12.5 33.601562 49.433594 40.75 62.667968-1.601562-5.542968-3.300781-11.027343-5.050781-16.457031-.25-.847656 5 9.105469 4.699219 8.257813-22.148438-67.875-80-163.066406-122.648438-217.195313-5.25 14.253907-10.5 28.449219-15.601562 42.761719-2.546876 7.179688-5.097657 14.308594-7.546876 21.492188-2.453124 7.183593-4.953124 14.367187-7.300781 21.550781-2.351562 7.179687-4.75 14.421875-7.101562 21.660156-2.347657 7.242187-4.597657 14.539063-6.898438 21.777344-4.550781 14.535156-7.050781 30.371093-11.550781 44.964843"/><path d="m188.601562 204.609375c-13.101562 4.46875-26.300781 8.316406-39.652343 11.707031-6.648438 1.753906-13.347657 3.28125-20.050781 4.808594-6.699219 1.527344-13.449219 2.828125-20.148438 4.128906-6.699219 1.300782-13.5 2.375-20.300781 3.449219-6.800781 1.078125-13.550781 1.980469-20.347657 2.773437-13.601562 1.46875-54.652343 8.089844-68.351562 8.484376 5.050781 1.1875 10.101562 2.261718 15.148438 3.28125.75.167968-9.449219.339843-8.699219.453124 63.050781 12.214844 164.851562 3.109376 227.601562-11.539062-8.300781-12.273438-16.550781-24.546875-24.949219-36.710938-4.25-6.050781-8.402343-12.101562-12.703124-18.097656-4.296876-5.996094-8.5-11.992187-12.847657-17.929687-4.351562-5.941407-8.652343-11.878907-13.050781-17.761719s-8.800781-11.765625-13.25-17.644531c-8.851562-11.710938-19.699219-22.117188-28.648438-33.769531"/></g></svg>

<!-- Generator: Adobe Illustrator 25.4.0, SVG Export Plug-In . SVG Version: 6.00 Build 0)  -->
<svg xmlns="http://www.w3.org/2000/svg" xmlns:xlink="http://www.w3.org/1999/xlink" width="250px" height="250px" viewBox="0 0 250 250" version="1.1">
<g id="surface1">
<path style=" stroke:none;fill-rule:nonzero;fill:rgb(10.980392%,77.64706%,45.490196%);fill-opacity:1;" d="M 65.351562 202.742188 C 68.449219 187.699219 72.148438 172.824219 76.25 158.058594 C 78.25 150.652344 80.449219 143.355469 82.601562 136 C 84.75 128.648438 87.148438 121.410156 89.550781 114.167969 C 91.949219 106.929688 94.449219 99.746094 97.050781 92.617188 C 99.648438 85.492188 102.300781 78.367188 105.101562 71.296875 C 110.648438 57.210938 126.148438 13.660156 132.699219 0.0859375 C 129.300781 4.441406 125.898438 8.796875 122.648438 13.261719 C 122.148438 13.941406 127.148438 3.816406 126.648438 4.496094 C 85.75 60.152344 41.800781 164.453125 21.648438 233.230469 C 35.199219 231.25 48.699219 229.328125 62.199219 227.121094 C 68.949219 225.988281 75.699219 224.972656 82.398438 223.726562 C 89.101562 222.484375 95.851562 221.410156 102.550781 220.109375 C 109.25 218.804688 116 217.5625 122.699219 216.203125 C 129.398438 214.847656 136.101562 213.433594 142.800781 212.074219 C 156.199219 209.246094 169.550781 203.816406 183 200.933594 "/>
<path style=" stroke:none;fill-rule:nonzero;fill:rgb(10.980392%,77.64706%,45.490196%);fill-opacity:1;" d="M 128.300781 82.609375 C 138.25 93.183594 147.800781 104.269531 157.050781 115.582031 C 161.699219 121.238281 166.199219 127.007812 170.75 132.832031 C 175.300781 138.660156 179.648438 144.597656 184 150.539062 C 188.351562 156.476562 192.601562 162.585938 196.75 168.695312 C 200.898438 174.800781 205.050781 180.96875 209 187.246094 C 217 199.746094 242.601562 236.679688 249.75 249.914062 C 248.148438 244.371094 246.449219 238.886719 244.699219 233.457031 C 244.449219 232.609375 249.699219 242.5625 249.398438 241.714844 C 227.25 173.839844 169.398438 78.648438 126.75 24.519531 C 121.5 38.773438 116.25 52.96875 111.148438 67.28125 C 108.601562 74.460938 106.050781 81.589844 103.601562 88.773438 C 101.148438 95.957031 98.648438 103.140625 96.300781 110.324219 C 93.949219 117.503906 91.550781 124.746094 89.199219 131.984375 C 86.851562 139.226562 84.601562 146.523438 82.300781 153.761719 C 77.75 168.296875 75.25 184.132812 70.75 198.726562 "/>
<path style=" stroke:none;fill-rule:nonzero;fill:rgb(10.980392%,77.64706%,45.490196%);fill-opacity:1;" d="M 188.601562 204.609375 C 175.5 209.078125 162.300781 212.925781 148.949219 216.316406 C 142.300781 218.070312 135.601562 219.597656 128.898438 221.125 C 122.199219 222.652344 115.449219 223.953125 108.75 225.253906 C 102.050781 226.554688 95.25 227.628906 88.449219 228.703125 C 81.648438 229.78125 74.898438 230.683594 68.101562 231.476562 C 54.5 232.945312 13.449219 239.566406 -0.25 239.960938 C 4.800781 241.148438 9.851562 242.222656 14.898438 243.242188 C 15.648438 243.410156 5.449219 243.582031 6.199219 243.695312 C 69.25 255.910156 171.050781 246.804688 233.800781 232.15625 C 225.5 219.882812 217.25 207.609375 208.851562 195.445312 C 204.601562 189.394531 200.449219 183.34375 196.148438 177.347656 C 191.851562 171.351562 187.648438 165.355469 183.300781 159.417969 C 178.949219 153.476562 174.648438 147.539062 170.25 141.65625 C 165.851562 135.773438 161.449219 129.890625 157 124.011719 C 148.148438 112.300781 137.300781 101.894531 128.351562 90.242188 "/>
</g>
</svg>
